outputs/icons/maps/map_sharp.svg

<svg xmlns="http://www.w3.org/2000/svg" width="1200" height="1200" fill="none"><g clip-path="url(#a)"><path fill="#000" d="m750 255.001-300-105-300 101V1061l300-116.5 300 105 300-101V138.501zm0 689.499L450 839V255.501l300 105.5z"/></g><defs><clipPath id="a"><path fill="#fff" d="M0 0h1200v1200H0z"/></clipPath></defs></svg>

<svg width="1200" height="1200" viewBox="0 0 1200 1200" fill="none" xmlns="http://www.w3.org/2000/svg"><g clip-path="url(#clip0_124_943)"><path d="M750 255.001L450 150.001L150 251.001V1061L450 944.5L750 1049.5L1050 948.5V138.501L750 255.001ZM750 944.5L450 839V255.501L750 361.001V944.5Z" fill="black"/></g><defs><clipPath id="clip0_124_943"><path width="24" fill="white" d="M0 0H1200V1200H0V0z"/></clipPath></defs></svg>
